!!!COM:	Busnoys, Antoine
!!!CDT:	~1430///-1492/11/06
!!!OTL:	Quelque pauvre homme I
!!!AGN:	Song; Chanson
!!!SCT:	Bus3051
!!!SCA:	Bus3051
!!!voices:	3
**kern	**kern	**kern
*staff3	*staff2	*staff1
*Ivox	*Ivox	*Ivox
*I"Contra	*I"Tenor	*I"Superius
*I'C	*I'T	*I'S
*clefF4	*clefGv2	*clefG2
*k[]	*k[]	*k[]
*M3/1	*M3/1	*M3/1
*met(O)	*met(O)	*met(O)
=1-	=1-	=1-
!	!	!LO:TX:Z=34:t=Rondeau
!	!	!LO:TX:Z=10:t=Dijon Chansonnnier
1G	0.r	0.r
1E	.	.
1F	.	.
=2	=2	=2
1G	1g	0.r
1C	1e	.
1D	1f	.
=3	=3	=3
2E	1g	1g
1E	.	.
.	1c	1e
4D	.	.
4C	.	.
1BB	1d	1f
=4	=4	=4
2r	2e	1g
1C	1e	.
.	.	1c
2E	4d	.
.	4c	.
1D	2.B	1d
.	4A	.
=5	=5	=5
2.C	2c	2e
.	1g	1e
4D	.	.
2.E	.	.
.	4f	4d
4F	4e	4c
1G	1d	2.B
.	.	4A
=6	=6	=6
2A	1c	0c
1F	.	.
.	1r	.
2G	.	.
2A	2.c	1r
2B	.	.
.	4d	.
=7	=7	=7
1.c	1e	1g
.	1e	1g
2B	.	.
1A	1f	1a
=8	=8	=8
1G	1g	1b
0F	1.a	1.cc
.	2g	2b
=9	=9	=9
1G	2.g	2.b
.	4e	4g
1r	2f	2a
.	1g	1g
1c	.	.
.	2e	2cc
=10	=10	=10
2B	2f	2dd
2c	4e	1ee
.	4d	.
2A	2c	.
2c	2e	4dd
.	.	4cc
[1G	2d	1b
.	[2g	.
=11	=11	=11
2G]	2g]	2ee
2A	2f	2.dd
2c	2e	.
.	.	4cc
2A	4d	1cc
.	4c	.
1G	1d	.
.	.	2b
=12	=12	=12
2.C	1c	0cc
4D	.	.
2E	1r	.
2.F	.	.
.	1c	1r
4G	.	.
[2A	.	.
=13	=13	=13
4A]	2B	1r
4G	.	.
1G	4A	.
.	4G	.
.	2A	1cc
2F#i	2A	.
1G	2G	2b
.	2E	4a
.	.	4g
=14	=14	=14
2r	2.F	2a
2D	.	2a
.	4G	.
2E	2E	2g
2C	1A	2e
1D	.	2.f
.	2B	.
.	.	4g
=15	=15	=15
2C	2c	2e
2.BB	1d	1d
4AA	.	.
4BB	2B	1g
4C	.	.
1D	1A	.
.	.	2f#i
=16	=16	=16
1GNy	1GNy	2.gNy
.	.	4f
2F	1r	2.a
1E	.	.
.	.	4g
.	1g	1e
2C	.	.
=17	=17	=17
2D	2f	1r
2E	1e	.
1C	.	1g
.	2c	.
1r	2d	2f
.	2e	[2e
=18	=18	=18
1E	1c	2e]
.	.	2c
2D	2B	2d
2C	1c	2e
2.E	.	1c
.	2e	.
4F	.	.
=19	=19	=19
2G	2d	2B
1E	2c	1c
.	1g	.
2C	.	2e
2D	2f	2d
[2E	[2e	2c
=20	=20	=20
2E]	4e]	2.g
.	4c	.
2C	2e	.
.	.	4f
2D	2d	2f
2E	1c	2e
2F	.	1d
2G	2B	.
=21	=21	=21
2A	0c	1c
2.F	.	.
.	.	2r
4G	.	.
2.E	.	2c
.	1r	2e
4C	.	.
2D	.	2f
=22	=22	=22
1C	2c	1g
.	2e	.
2r	2f	2a
2C	1g	1g
2E	.	.
2F	4f	[2cc
.	4e	.
=23	=23	=23
1G	1d	2cc]
.	.	2b
0C	1.c	1cc
.	.	2r
.	4B	[2cc
.	4A	.
=24	=24	=24
1r	2.G	4cc]
.	.	4b
.	.	1dd
.	4A	.
1r	2B	.
.	2c	2cc
1G	2d	2.b
.	2e	.
.	.	4g
=25	=25	=25
2F	2f	2a
2.E	1g	1g
4C	.	.
2D	2f	2dd
2.E	2e	2cc
.	4d	2ee
4F	4c	.
=26	=26	=26
2G	2B	2dd
1C	2.e	2.gg
.	4d	4ff
2.BB	2.f	2.dd
4C	4e	4ee
2D	2d	2ff
=27	=27	=27
2.E	2c	2gg
.	1g	1ee
4C	.	.
1C	.	.
.	4f	4dd
.	4g	4ee
2r	4a	4ff
.	4g	4ee
2F	4f	4dd
.	4e	4cc
=28	=28	=28
2G	2d	2b
2.E	2c	2.ee
.	1e	.
4C	.	4dd
4E	.	1cc
4F	.	.
1G	1d	.
.	.	2b
=29	=29	=29
0.Cl	0.cl	0.ccl
==	==	==
*-	*-	*-
!!!RDF**kern: l=long note in original notation
!!!RDF**kern: i=editorial accidental
!!!RDF**kern: N=signum congruentiae
!!!ENC:	Chris Gage 04-17-2015
!!!END:	2015/05/12/
!!!EED:	Jesse Rodin
!!!EEV:	2015/09/21/
!!!ONB:	Translated from MusicXML and edited on 2015/09/21/ by Craig Sapp
!!muse2ps: C^@{COM}^i2I150v95,95,150Q16
